X: 1
T: Colonel Craford's Reel
R: strathspey
O:
B: RSCDS 9.
D:
M: 4/4
L: 1/8
Z: 1997 John Chambers <jc@trillian.mit.edu>
K: F
|: A \
| "F"F>C A,>C "Dm"~F2 A>F | "Gm"~G2 B>A G<D "C7"D>E \
| "F"F>C A,>C "Dm"~F2 A>c | "Bb"d>f "C7"c>f "F"A<F F :|
|: c \
| "F"f>g a>g "Dm"f>e f>c | "Gm"~g2 b>a g<d "C7"d>e \
| "F"f>g a>g f>e "Bb"d>B | "F"A>c "C7"G>B | "F"A<F F>c |
| "F"f>g a>g "Dm"f>e f>c | "Gm"~g2 b>a g<d "C7"d>e \
| "F"f>c "C7"a>e "F"f>c "Bb"d>B | "F"A>c "C7"G>B "F"A<F F |]
